src/icons/service-kubernetes.svg

<svg enable-background="new 0 0 14 14" viewBox="0 0 14 14" xmlns="http://www.w3.org/2000/svg"><g><path d="m7 .4c-.1 0-.2 0-.3.1l-4.7 2.2c-.2.1-.4.3-.5.6l-1.2 5c-.1.2 0 .5.1.7 0 0 0 0 .1.1l3.2 4c.2.2.4.3.7.3h5.2c.3 0 .5-.1.7-.3l3.2-4c.2-.2.2-.5.2-.7l-1.2-5c-.1-.3-.2-.5-.5-.6l-4.7-2.2c0-.1-.2-.2-.3-.2z" fill="#326ce5"/><path d="m7 2.1c-.2 0-.3.1-.3.3v.1.3.5c0 .1-.1.1-.1.1v.1c-.2 0-.3 0-.5.1-.7.2-1.4.5-1.8 1l-.1-.1s-.1 0-.2 0c-.1-.1-.2-.2-.4-.3-.1-.1-.1-.1-.2-.2 0 0 0 0-.1 0s-.1-.1-.2-.1-.2 0-.2.1c-.1.1-.1.3.1.4h.1c.1.1.2.1.2.1.2.1.3.2.4.3 0 0 .1.1.1.2l.1.1c-.5.7-.7 1.6-.6 2.5h-.1l-.1.1c-.1 0-.3.1-.5.1-.1 0-.2 0-.3 0h-.1c-.2 0-.3.2-.2.3 0 .1.2.2.4.2h.1c.1 0 .2-.1.3-.1.2-.1.3-.1.5-.1.1 0 .1 0 .2.1h.1c.3.9.9 1.6 1.6 2l-.1.1v.2c-.1.1-.1.3-.3.5-.1.1-.1.1-.1.2v.1c-.1.2 0 .3.1.4s.3 0 .4-.2v-.1c0-.1.1-.2.1-.3.1-.2.1-.4.2-.5 0 0 .1 0 .1-.1l.1-.1c.6.2 1.4.3 2.1.2.2 0 .3-.1.5-.1l.1.1s.1 0 .1.1c.1.1.1.3.2.5 0 .1 0 .2.1.3v.1c.1.2.2.2.4.2.1-.1.2-.2.1-.4v-.1c0-.1-.1-.1-.1-.2-.1-.2-.2-.3-.2-.4s0-.1 0-.2v-.1c.8-.5 1.3-1.2 1.6-2h.1s.1-.1.2-.1.3.1.5.1c.1 0 .2.1.3.1h.1c.2 0 .3-.1.4-.2 0-.1-.1-.3-.2-.3h-.1c-.1 0-.2 0-.3 0-.2 0-.4 0-.5-.1-.1 0-.1-.1-.1-.1h-.1c.1-.4 0-.9-.1-1.3s-.3-.9-.5-1.2l.1-.1c0-.1 0-.1.1-.2s.2-.2.4-.3c.1 0 .2-.1.2-.1h.1c.1-.1.2-.3.1-.4s-.3-.1-.4 0c0 0 0 0-.1 0-.1.1-.1.1-.2.2s-.3.3-.4.3-.1 0-.2 0l-.1.1c-.6-.6-1.4-1-2.3-1.1v-.1l-.1-.1c0-.2 0-.3 0-.5 0-.1 0-.2 0-.3v-.1c-.2-.3-.3-.5-.5-.5zm-.3 2.2-.1 1.5c0 .1-.1.2-.2.2s-.1 0-.1 0l-1.2-.9c.4-.4.8-.6 1.4-.8zm.7 0c.6.1 1.2.4 1.7.8l-1.2.8c-.1.1-.3.1-.3 0l-.1-.1zm-2.8 1.4 1.1 1c.1.1.1.2 0 .3l-.1.1-1.4.4c-.1-.7 0-1.3.4-1.8zm4.9 0c.2.3.3.6.4.9s.1.6.1.9l-1.4-.4c-.1 0-.2-.2-.2-.3s0-.1.1-.1zm-2.7 1h.4l.3.3-.1.4-.4.2-.4-.2-.1-.4zm1.4 1.2c.1 0 .1 0 0 0l1.5.2c-.2.6-.6 1.1-1.2 1.5l-.6-1.4c.1-.1.1-.2.3-.3zm-2.4 0c.1 0 .2.1.2.2v.2l-.6 1.4c-.5-.3-.9-.8-1.2-1.5zm1.2.6.2.1.7 1.3c-.1 0-.2.1-.3.1-.5.1-1.1.1-1.6-.1l.7-1.3c.2 0 .2-.1.3-.1z" fill="#fff" stroke="#fff" stroke-width=".25"/></g></svg>

<?xml version="1.0" encoding="utf-8"?>
<!-- Generator: Adobe Illustrator 20.1.0, SVG Export Plug-In . SVG Version: 6.00 Build 0)  -->
<svg version="1.1" id="Layer_1" xmlns="http://www.w3.org/2000/svg" xmlns:xlink="http://www.w3.org/1999/xlink" x="0px" y="0px"
	 viewBox="0 0 14 14" style="enable-background:new 0 0 14 14;" xml:space="preserve">
<style type="text/css">
	.st0{fill:#326CE5;}
	.st1{fill:#FFFFFF;stroke:#FFFFFF;stroke-width:0.25;}
</style>
<title>HDL/Icon/Standard/Service/kubernetes</title>
<desc>Created with Sketch.</desc>
<g id="Colors">
	<g id="Service-icons" transform="translate(-122.000000, -1112.000000)">
		<g id="Kubernetes_1_" transform="translate(101.000000, 1094.000000)">
			<g id="HDL_x2F_Icon_x2F_Standard_x2F_Service_x2F_kubernetes" transform="translate(21.000000, 18.000000)">
				<g id="Kubernetes">
					<path id="Path" class="st0" d="M7,0.4c-0.1,0-0.2,0-0.3,0.1L2,2.7C1.8,2.8,1.6,3,1.5,3.3l-1.2,5C0.2,8.5,0.3,8.8,0.4,9
						c0,0,0,0,0.1,0.1l3.2,4c0.2,0.2,0.4,0.3,0.7,0.3h5.2c0.3,0,0.5-0.1,0.7-0.3l3.2-4c0.2-0.2,0.2-0.5,0.2-0.7l-1.2-5
						c-0.1-0.3-0.2-0.5-0.5-0.6L7.3,0.6C7.3,0.5,7.1,0.4,7,0.4L7,0.4z"/>
					<path id="Shape" class="st1" d="M7,2.1c-0.2,0-0.3,0.1-0.3,0.3v0.1v0.3v0.5c0,0.1-0.1,0.1-0.1,0.1v0.1c-0.2,0-0.3,0-0.5,0.1
						c-0.7,0.2-1.4,0.5-1.8,1L4.2,4.5c0,0-0.1,0-0.2,0C3.9,4.4,3.8,4.3,3.6,4.2C3.5,4.1,3.5,4.1,3.4,4c0,0,0,0-0.1,0
						S3.2,3.9,3.1,3.9C3,3.9,2.9,3.9,2.9,4C2.8,4.1,2.8,4.3,3,4.4h0.1c0.1,0.1,0.2,0.1,0.2,0.1c0.2,0.1,0.3,0.2,0.4,0.3
						c0,0,0.1,0.1,0.1,0.2l0.1,0.1C3.4,5.8,3.2,6.7,3.3,7.6H3.2L3.1,7.7C3,7.7,2.8,7.8,2.6,7.8c-0.1,0-0.2,0-0.3,0H2.2
						C2,7.8,1.9,8,2,8.1c0,0.1,0.2,0.2,0.4,0.2h0.1c0.1,0,0.2-0.1,0.3-0.1C3,8.1,3.1,8.1,3.3,8.1c0.1,0,0.1,0,0.2,0.1h0.1
						c0.3,0.9,0.9,1.6,1.6,2l-0.1,0.1v0.2C5,10.6,5,10.8,4.8,11c-0.1,0.1-0.1,0.1-0.1,0.2v0.1c-0.1,0.2,0,0.3,0.1,0.4
						c0.1,0.1,0.3,0,0.4-0.2v-0.1c0-0.1,0.1-0.2,0.1-0.3c0.1-0.2,0.1-0.4,0.2-0.5c0,0,0.1,0,0.1-0.1l0.1-0.1
						c0.6,0.2,1.4,0.3,2.1,0.2c0.2,0,0.3-0.1,0.5-0.1l0.1,0.1c0,0,0.1,0,0.1,0.1c0.1,0.1,0.1,0.3,0.2,0.5c0,0.1,0,0.2,0.1,0.3v0.1
						c0.1,0.2,0.2,0.2,0.4,0.2c0.1-0.1,0.2-0.2,0.1-0.4v-0.1c0-0.1-0.1-0.1-0.1-0.2C9.1,10.9,9,10.8,9,10.7c0-0.1,0-0.1,0-0.2v-0.1
						c0.8-0.5,1.3-1.2,1.6-2h0.1c0,0,0.1-0.1,0.2-0.1c0.1,0,0.3,0.1,0.5,0.1c0.1,0,0.2,0.1,0.3,0.1h0.1c0.2,0,0.3-0.1,0.4-0.2
						C12.2,8.2,12.1,8,12,8h-0.1c-0.1,0-0.2,0-0.3,0c-0.2,0-0.4,0-0.5-0.1C11,7.9,11,7.8,11,7.8h-0.1c0.1-0.4,0-0.9-0.1-1.3
						c-0.1-0.4-0.3-0.9-0.5-1.2l0.1-0.1c0-0.1,0-0.1,0.1-0.2c0.1-0.1,0.2-0.2,0.4-0.3c0.1,0,0.2-0.1,0.2-0.1h0.1
						c0.1-0.1,0.2-0.3,0.1-0.4c-0.1-0.1-0.3-0.1-0.4,0c0,0,0,0-0.1,0c-0.1,0.1-0.1,0.1-0.2,0.2s-0.3,0.3-0.4,0.3c-0.1,0-0.1,0-0.2,0
						L9.9,4.8c-0.6-0.6-1.4-1-2.3-1.1V3.6L7.5,3.5c0-0.2,0-0.3,0-0.5c0-0.1,0-0.2,0-0.3V2.6C7.3,2.3,7.2,2.1,7,2.1z M6.7,4.3
						L6.6,5.8C6.6,5.9,6.5,6,6.4,6S6.3,6,6.3,6L5.1,5.1c0.4-0.4,0.8-0.6,1.4-0.8H6.7z M7.4,4.3C8,4.4,8.6,4.7,9.1,5.1L7.9,5.9
						C7.8,6,7.6,6,7.6,5.9L7.5,5.8L7.4,4.3z M4.6,5.7l1.1,1c0.1,0.1,0.1,0.2,0,0.3L5.6,7.1L4.2,7.5C4.1,6.8,4.2,6.2,4.6,5.7z
						 M9.5,5.7C9.7,6,9.8,6.3,9.9,6.6C10,6.9,10,7.2,10,7.5L8.6,7.1c-0.1,0-0.2-0.2-0.2-0.3s0-0.1,0.1-0.1L9.5,5.7z M6.8,6.7h0.4
						L7.5,7L7.4,7.4L7,7.6L6.6,7.4L6.5,7L6.8,6.7z M8.2,7.9C8.3,7.9,8.3,7.9,8.2,7.9l1.5,0.2C9.5,8.7,9.1,9.2,8.5,9.6L7.9,8.2
						C8,8.1,8,8,8.2,7.9L8.2,7.9z M5.8,7.9C5.9,7.9,6,8,6,8.1v0.2L5.4,9.7C4.9,9.4,4.5,8.9,4.2,8.2L5.8,7.9z M7,8.5L7,8.5l0.2,0.1
						l0.7,1.3C7.8,9.9,7.7,10,7.6,10C7.1,10.1,6.5,10.1,6,9.9l0.7-1.3C6.9,8.6,6.9,8.5,7,8.5L7,8.5z"/>
				</g>
			</g>
		</g>
	</g>
</g>
</svg>
